X:572
T:Willafjord #1
C:Joe Buchanan's Scottish Tome - Page 154.1
I:154 1
Z:Carl Allison
R:Reel
L:1/8
M:4/4
K:D
|: B2 | "D"A2 FA- "D/F#"ADFA | "G"B2 GB- BDGB | "D"A2 FA- ADEG | "Em"EFGA "A7"GFED |
"D"A2 FA- "D/F#"ADFA | "G"B2 GB- BDGB | "A7"ABcd efge | "D"f2 "G"d2 "D"d2 :|
|: e2 | "D"f2 df- ffdf | "Em"geaf gfeg | "D"f2 df- fGdf | "A7"e2 ce- eAce |
"D"f2 df- ffdf | "Em"geaf gfed | "A"ABcd efge | "D"f2 d2 d2 :|

